X: 1
T:North End -- Reel
M:2/4
L:1/16
R:reel
B:Ryan's Mammoth Collection
N:369
Z:Contributed by Ray Davies,  ray:davies99.freeserve.co.uk
K:F
u(fd)"^Segno"|\
vcFdF cFAd | cF((3dcA) (GA)Bd | cFdF cFAc | defg agfd |
cFdF cFAd | cF((3dcA) (GA)Bd | cFdF cFAc | defg (af).f2 :|
|:v(ag)fe (fc)Ac | dfcA (AG).G2 | (ag)fe (fc)Ac | dfeg .f2(fg) |
(ag)fe (fc)Ac | (df)cA (AG)GB | AFcF dFcF | dfeg .f2(fd)"^Segno" :|
